svgs/light/film-canister.svg

<svg xmlns="http://www.w3.org/2000/svg" viewBox="0 0 576 512"><!--! Font Awesome Pro 6.2.0 by @fontawesome - https://fontawesome.com License - https://fontawesome.com/license (Commercial License) Copyright 2022 Fonticons, Inc. --><path d="M112 32h128C248.8 32 256 24.84 256 16C256 7.162 248.8 0 240 0h-128C103.2 0 96 7.162 96 16C96 24.84 103.2 32 112 32zM336 480H320V96h16C344.8 96 352 88.84 352 80C352 71.16 344.8 64 336 64h-320C7.164 64 0 71.16 0 80C0 88.84 7.164 96 16 96H32v384H16C7.164 480 0 487.2 0 496C0 504.8 7.164 512 16 512h320c8.836 0 16-7.164 16-16C352 487.2 344.8 480 336 480zM288 480H64V96h224V480zM528 128h-160C359.2 128 352 135.2 352 144S359.2 160 368 160h160C536.8 160 544 167.2 544 176v128c0 8.828-7.188 16-16 16c-26.47 0-48 21.53-48 48v32c0 8.828-7.188 16-16 16h-96c-8.844 0-16 7.156-16 16s7.156 16 16 16h96c26.47 0 48-21.53 48-48v-32c0-8.828 7.188-16 16-16c26.47 0 48-21.53 48-48v-128C576 149.5 554.5 128 528 128zM384 376c0 4.418 3.582 8 8 8h16c4.418 0 8-3.582 8-8v-16c0-4.42-3.582-8-8-8h-16C387.6 352 384 355.6 384 360V376zM504 224C508.4 224 512 220.4 512 216v-16C512 195.6 508.4 192 504 192h-16C483.6 192 480 195.6 480 200v16C480 220.4 483.6 224 488 224H504zM392 224h16C412.4 224 416 220.4 416 216v-16C416 195.6 412.4 192 408 192h-16C387.6 192 384 195.6 384 200v16C384 220.4 387.6 224 392 224z"/></svg>

<svg xmlns="http://www.w3.org/2000/svg" viewBox="0 0 576 512"><!--! Font Awesome Pro 6.3.0 by @fontawesome - https://fontawesome.com License - https://fontawesome.com/license (Commercial License) Copyright 2023 Fonticons, Inc. --><path d="M112 0c-8.8 0-16 7.2-16 16s7.2 16 16 16H240c8.8 0 16-7.2 16-16s-7.2-16-16-16H112zM16 64C7.2 64 0 71.2 0 80s7.2 16 16 16H32V480H16c-8.8 0-16 7.2-16 16s7.2 16 16 16H48 304h32c8.8 0 16-7.2 16-16s-7.2-16-16-16H320V96h16c8.8 0 16-7.2 16-16s-7.2-16-16-16H304 48 16zM64 480V96H288V480H64zM384 200v16c0 4.4 3.6 8 8 8h16c4.4 0 8-3.6 8-8V200c0-4.4-3.6-8-8-8H392c-4.4 0-8 3.6-8 8zm8 152c-4.4 0-8 3.6-8 8v16c0 4.4 3.6 8 8 8h16c4.4 0 8-3.6 8-8V360c0-4.4-3.6-8-8-8H392zm88-152v16c0 4.4 3.6 8 8 8h16c4.4 0 8-3.6 8-8V200c0-4.4-3.6-8-8-8H488c-4.4 0-8 3.6-8 8zM352 160H528c8.8 0 16 7.2 16 16V304c0 8.8-7.2 16-16 16c-26.5 0-48 21.5-48 48v32c0 8.8-7.2 16-16 16H352v32H464c26.5 0 48-21.5 48-48V368c0-8.8 7.2-16 16-16c26.5 0 48-21.5 48-48V176c0-26.5-21.5-48-48-48H352v32z"/></svg>
